X: 20217
T: Joe Bane's Schottische
R: barndance
M: 4/4
K: Dmajor
AGFG A2A2|defd A2A2|fgfd efed|cABc d2d2:|
abag fgfe|defd A2A2|fgfd efed|cABc d2d2:|

